X:458
T: Hezuohua wadiaole qionggen
N: C2076
O: China, Qinghai Huzhu
S: I, 233]
N: Tuzu
R: Shange, Tuzuling]
M: 3/4
L: 1/8
K: Bb
c2d2c2 | f2g2b2 | c6- | c6- | cdf2g2 | b2g2b2 | gff4- | f6- | f6
z2c2df | f2g2b2 | c2d2f2 | g2f2gb
b2b2g2 | g2g2b2 | gbf2g2 | fgf4 | f6- | f6

